X:53
T:Calliope House
R:Jig
M:6/8
C:Dave Richardson
K:D
ABc|:"D"dAA fAA|eAA fed|"Em"Bee ~e2d|"A"efd BdB|!
"D"ABF ~A2F|"Bm"A2B d2e|1"Em"f2a fed|"A"e3 ABc:|2"Em"faf "A"edB|"D"d3 efg|!
|:"D"a3 faa|"D"eaa def|"G"~g3 fgf|"Em"efe edB|!
"D"A2F ABF|"Bm"A2B d2e|1"Em"f2a fed|"A"[A3e3]- [Ae]fg:|2"Em"fef "A"edB|"D"[A3d3]- [A2d2]z||

